X: 48
T: Praeludia organi op. 5 – Adagio
C: Franciszek Walczyński
%%abc-version 2.0
%%abcx-abcm2ps-target-version 5.9.1 (29 Sep 2008)
%%abc-creator hum2abc beta
%%abcx-conversion-date 2021/10/04 07:38:40
%%abc-edited-by Andrzej Borzym
%%abc-edited-by Krzysztof Stępień
%%abcx-initial-encoding-date 2021-07-26
%%humdrum-veritas 1139771337
%%humdrum-veritas-data 1624214504
%%linebreak <none>
%%barnumbers 0
L: 1/4
M: 3/2
N: Derived from pl-kozmzk--mzk-m-159--037_walczynski-franciszek--praeludia-organi-op-5-adagio.krn
Q: "37. Adagio."
%%staves {1 2}
V: 1 clef=treble
V: 2 clef=bass
K: Db
[V:1] F3A2G & DEDD3- | 
[V:2] A,=A,B,B,3 & D,C,B,,G,,3 | 
[V:1] F2ED3 & DC2D3 | 
[V:2] _A,G,2F,3 & A,,3D,3 | 
[V:1] G2>B2AG & B,=A,B,GFE | 
[V:2] E,2>C2_A,2 & E,2>A,,2B,,C, | 
[V:1] G3F3 & EB,CD3 | 
[V:2] A,2>-A,2B,A, & D,6 | 
[V:1] ABcedc & G3F2E | 
[V:2] A,2E,D,B,=A, & C,B,,=A,,B,,2F, | 
[V:1] B_AGF2!fermata!E & DFE2DC | 
[V:2] B,3_A,3 & G,=D,E,_A,2!fermata!A,, | 
[V:1] F3A2G & DEDD3 | 
[V:2] A,=A,B,B,3 & D,C,B,,E,,F,,G,, | 
[V:1] F2ED3 & DC2xx2 | 
[V:2] _A,G,2F,G,F, & A,,2=A,,B,,3 | 
[V:1] EFGFE2 & D3D2C | 
[V:2] B,2>A,2__A,G,- & G,,2>A,,2B,,A,, | 
[V:1] D6 & A,6 |]  
[V:2] G,F,E,F,3 & D,6 |]  


